X:257
T:score58
L:1/8
Q:1/4=96
M:3/4
I:linebreak $
K:Db
 (=GA cB GA | cB =GA cB | =GA cB GA | Bc de fg) |$ (b3 a gf | fe e=d e2) | (b3 a gf | fe =de fB) |] %8
